X: 1
T: Hora Veche   [Gm]
%T: P\^in\ua c\^ind nu te iubeam ?
O: Romania
Z: from a 2012 transcription by Patrick Yacono
Z: 2013 John Chambers <jc:trillian.mit.edu>
S: https://www.youtube.com/watch?v=NHw_XWn0k4I
S: https://www.youtube.com/watch?v=bQK4ZpL1mDs
M: 6/16
L: 1/16
K: Gm
D- "D7"DGA |\
"Gm"AB2 ~B2A | "Cm"=Bc2 "A7/c#"~c2_B | "D7"~B2A A3- | ~A2D ^FG2 |\
"Cm"G~A2 A2~G | ~^F3 EDE | "Gm"D6- | "D7"D2D GB2 |
"Gm"^cd2 ~d2=c | "G7"de2 ~e2d | "Cm"{^f}g2z c3- | "(Am)"c2c d2e |\
"D7"dBd ~c2B | "/e"BGB "/f#"A^FA | "Gm"G6- | G2  :|
|: d- d^cd |\
"Gm"B6- | B2d- ~d^cd | "D7"A6- | A3 z3 |\
[A2^F2][BG] [cA][d2B2] | "Cm"~[e2c2][dB] [cA][e2c2] | "Gm"[d6B6]- | "D7"[d2A2]d- de^f |
"Gm"{^f}g6- | "G7"gdf ee=B | "Cm"=Bc2- c3 | "(Am)"{d}e6 |\
"D7"dBd cAc | "/e"BGB "/f#"A^FA |1 "Gm"G6- | Gz :|2 "Gm"G2z "D7"d2z | "Gm"g2 |]


